X:74
T: Herr von Falkenstein
N: Q0021B
O: Mitteleuropa, Deutschland (BRD) , Gegend von Lippe
N: Anhaengsel in der letzten Zeile.
R: Ballade, Gefangenschaft, Ehe, Befreiung
M: 6/8
L: 1/8
K: F
F | cdcAGF | Bcdc2
F | c2cfed | d3c2
F | cdcAGF | Bcdc2
F | c2cfed | d3c2c | G3Fz2

@@@ Tune index: 703
